X:1
T:Lord Randal
M:2/4
L:1/8
K:C
 DE| G G2 G| GE DE| G G2 G| G2 GA| B B2 B| dB G2| B A2 B| A3 D| B B2 B|\
 A G2 E| A G2 E| D2 B,C| D D2 E| G2G-A| B A2 A| G2||
